icons/AppleMusic.svg

<svg width="16" height="16" viewBox="0 0 16 16" fill="none" xmlns="http://www.w3.org/2000/svg">
<g clip-path="url(#clip0_1447_1741)">
<path fill-rule="evenodd" clip-rule="evenodd" d="M16 4.4342V5.00676H15.9936V11.5658C15.9936 11.7249 15.9936 11.8903 15.9873 12.0493C15.9746 12.3992 15.9555 12.7491 15.8919 13.099C15.8284 13.4489 15.7267 13.7797 15.5614 14.0978C15.4025 14.4159 15.1927 14.7022 14.9448 14.9503C14.6969 15.1984 14.4044 15.4083 14.093 15.5674C13.7751 15.7328 13.4446 15.8346 13.095 15.8982C12.7517 15.9618 12.3957 15.9873 12.0461 15.9936C11.8872 16 11.7219 16 11.563 16H4.43067C4.27175 16 4.10648 16 3.94756 15.9936C3.59793 15.9809 3.24831 15.9618 2.89869 15.8982C2.54907 15.8346 2.21851 15.7328 1.90068 15.5674C1.58284 15.4083 1.29678 15.1984 1.04887 14.9503C0.800953 14.7022 0.59118 14.4095 0.432261 14.0978C0.266985 13.7797 0.165276 13.4489 0.101708 13.099C0.0381405 12.7555 0.0127137 12.3992 0.00635692 12.0493C0 11.8903 0 11.7249 0 11.5658V4.42783C0 4.26879 0 4.10338 0.00635692 3.94433C0.0190705 3.59443 0.0381405 3.24453 0.101708 2.89463C0.165276 2.54473 0.266985 2.21392 0.432261 1.89582C0.597537 1.5841 0.800953 1.29781 1.05522 1.0497C1.30314 0.795228 1.58919 0.59165 1.90703 0.432605C2.22487 0.267197 2.55542 0.165407 2.90505 0.101789C3.24831 0.0381709 3.60429 0.0127235 3.95391 0.00636167C4.11283 0 4.27811 0 4.43703 0H11.5693C11.7282 0 11.8935 0 12.0524 0.00636167C12.4021 0.0190853 12.7517 0.0381709 13.1013 0.101789C13.4509 0.165407 13.7815 0.267197 14.0993 0.432605C14.4172 0.59165 14.7032 0.80159 14.9511 1.0497C15.199 1.29781 15.4088 1.59046 15.5677 1.90219C15.733 2.22028 15.8347 2.55109 15.8983 2.90099C15.9619 3.24453 15.9873 3.6008 15.9936 3.9507C16 4.10972 16 4.27517 16 4.4342ZM11.315 2.4429C11.5693 2.42382 11.7155 2.58922 11.7092 2.86278V10.4079C11.7092 10.6115 11.7092 10.796 11.6647 10.9996C11.6202 11.1968 11.5439 11.3813 11.4295 11.5467C11.315 11.7121 11.1625 11.852 10.9908 11.9538C10.8192 12.062 10.6349 12.1192 10.4378 12.1574C10.0691 12.2338 9.81484 12.2528 9.57964 12.2019C9.35079 12.1574 9.15373 12.0493 9.00117 11.9093C8.76597 11.693 8.62612 11.4131 8.59434 11.1141C8.56255 10.7705 8.67697 10.3952 8.9376 10.1216C9.07109 9.98803 9.23637 9.87987 9.45886 9.79081C9.6877 9.70174 9.94197 9.64449 10.3361 9.56814C10.3869 9.5586 10.4394 9.54747 10.4918 9.53634C10.5443 9.5252 10.5967 9.51407 10.6476 9.50453C10.7874 9.47908 10.9018 9.44091 10.9972 9.3264C11.0925 9.21188 11.0925 9.07192 11.0925 8.93196V5.40751C11.0925 5.14031 10.9654 5.06397 10.7111 5.11487C10.5268 5.15304 6.57288 5.94827 6.57288 5.94827C6.35039 5.99916 6.27411 6.06914 6.27411 6.34906V11.5085C6.27411 11.7121 6.26776 11.8966 6.22326 12.1002C6.17876 12.2974 6.10248 12.4819 5.98806 12.6473C5.87364 12.8127 5.72107 12.9526 5.54944 13.0544C5.37781 13.1562 5.19346 13.2198 4.9964 13.258C4.62771 13.3343 4.37344 13.3534 4.13824 13.3025C3.90939 13.2516 3.71233 13.1435 3.55977 13.0035C3.33093 12.7872 3.19744 12.5073 3.16565 12.2083C3.12751 11.8648 3.23558 11.4894 3.4962 11.2159C3.6297 11.0823 3.79497 10.9741 4.01746 10.885C4.2463 10.796 4.50057 10.7387 4.89469 10.6624L5.20618 10.5988C5.34602 10.5733 5.46045 10.5351 5.5558 10.4206C5.65115 10.3061 5.66386 10.1725 5.66386 10.0326V4.07789C5.66386 4.00155 5.67022 3.94429 5.67658 3.91884C5.69565 3.79161 5.7465 3.68345 5.8355 3.60711C5.91178 3.54349 6.00713 3.49896 6.13426 3.47351L10.8891 2.51288C10.9336 2.50652 11.2767 2.44929 11.315 2.4429Z" fill="#FF00FF"/>
</g>
<defs>
<clipPath id="clip0_1447_1741">
<rect width="16" height="16" fill="white"/>
</clipPath>
</defs>
</svg>

<svg width="16" height="16" fill="none" xmlns="http://www.w3.org/2000/svg"><g clip-path="url(#a)"><path fill-rule="evenodd" clip-rule="evenodd" d="M16 4.434v.573h-.006v6.559c0 .159 0 .324-.007.483-.012.35-.031.7-.095 1.05a3.48 3.48 0 0 1-.33.999 3.283 3.283 0 0 1-.617.852c-.248.248-.54.458-.852.617a3.476 3.476 0 0 1-.998.331c-.343.064-.7.09-1.049.096-.159.006-.324.006-.483.006H4.431c-.16 0-.325 0-.483-.006-.35-.013-.7-.032-1.05-.096a3.476 3.476 0 0 1-.997-.33 3.282 3.282 0 0 1-.852-.618 3.394 3.394 0 0 1-.617-.852 3.483 3.483 0 0 1-.33-.999 6.445 6.445 0 0 1-.096-1.05C0 11.89 0 11.725 0 11.566V4.428c0-.16 0-.325.006-.484.013-.35.032-.7.096-1.05.063-.35.165-.68.33-.998.166-.312.369-.598.623-.846a3.14 3.14 0 0 1 .852-.617c.318-.166.648-.268.998-.331.343-.064.7-.09 1.049-.096C4.113 0 4.278 0 4.437 0h7.132c.16 0 .324 0 .483.006.35.013.7.032 1.05.096.349.063.68.165.997.33.318.16.604.37.852.618s.458.54.617.852c.165.318.267.65.33.999.064.344.09.7.096 1.05.006.159.006.324.006.483zm-4.685-1.991c.254-.02.4.146.394.42v7.545c0 .204 0 .388-.044.592-.045.197-.121.381-.235.547a1.412 1.412 0 0 1-.44.407 1.568 1.568 0 0 1-.552.203c-.369.077-.623.096-.858.045A1.192 1.192 0 0 1 9 11.909a1.256 1.256 0 0 1-.407-.795 1.284 1.284 0 0 1 .344-.992 1.5 1.5 0 0 1 .52-.331c.23-.09.484-.147.878-.223.05-.01.103-.02.156-.032.052-.01.105-.022.156-.031.14-.026.254-.064.35-.179.095-.114.095-.254.095-.394V5.408c0-.268-.128-.344-.382-.293l-4.138.833c-.223.051-.299.121-.299.401v5.16c0 .203-.006.388-.05.591-.045.197-.122.382-.236.547a1.412 1.412 0 0 1-.439.407 1.704 1.704 0 0 1-.553.204c-.368.076-.623.095-.858.045a1.258 1.258 0 0 1-.578-.3 1.27 1.27 0 0 1-.064-1.787 1.5 1.5 0 0 1 .521-.331c.23-.089.484-.146.878-.223l.311-.063c.14-.026.254-.064.35-.178.095-.115.108-.248.108-.388V4.078c0-.076.006-.134.013-.16a.493.493 0 0 1 .159-.31.65.65 0 0 1 .298-.134l4.755-.961c.045-.006.388-.064.426-.07z" fill="#F0F"/></g><defs><clipPath id="a"><path fill="#fff" d="M0 0h16v16H0z"/></clipPath></defs></svg>
